images/logo.svg

<svg width="216" height="71" viewBox="0 0 216 71" fill="none" xmlns="http://www.w3.org/2000/svg">
<path d="M19.022 15.934C19.762 15.8847 20.5513 15.8353 21.39 15.786C22.2287 15.7367 22.87 15.712 23.314 15.712C23.8073 15.6627 24.276 15.638 24.72 15.638C24.868 15.638 26.1753 15.6873 28.642 15.786C32.2927 15.934 34.8333 16.1313 36.264 16.378C37.744 16.6247 38.78 17.044 39.372 17.636C39.816 18.08 40.038 18.598 40.038 19.19C40.038 20.6207 39.2487 21.336 37.67 21.336H37.226H36.412C34.932 21.336 32.786 21.4347 29.974 21.632C27.162 21.78 25.4847 21.928 24.942 22.076C24.646 22.1253 24.4487 22.2487 24.35 22.446C24.2513 22.594 24.128 23.0133 23.98 23.704C23.8813 24.2467 23.3633 26.1707 22.426 29.476C21.3407 33.62 20.5267 36.3333 19.984 37.616C17.616 44.572 16.358 49.0613 16.21 51.084C16.062 54.1427 15.0753 55.672 13.25 55.672C12.51 55.672 11.8933 55.3267 11.4 54.636C10.956 53.896 10.734 53.008 10.734 51.972C10.734 49.7027 11.252 46.274 12.288 41.686C12.5347 40.1567 12.7813 39.2193 13.028 38.874C13.176 38.6273 13.25 38.3807 13.25 38.134C13.25 37.4433 14.3353 33.6447 16.506 26.738C17.1967 24.4193 17.542 23.112 17.542 22.816C17.542 22.7173 17.3447 22.668 16.95 22.668C16.506 22.668 15.6427 22.7173 14.36 22.816C13.1267 22.8653 12.4113 22.89 12.214 22.89H12.066C11.9673 22.8407 11.2767 22.8653 9.994 22.964C9.64867 23.0133 8.98267 23.0873 7.996 23.186C7.05867 23.2847 6.41733 23.3587 6.072 23.408C5.184 23.5067 4.592 23.556 4.296 23.556C2.52 23.556 1.43467 22.964 1.04 21.78C0.941333 21.3853 0.892 21.0893 0.892 20.892C0.892 19.1653 2.89 17.932 6.886 17.192C7.182 17.1427 7.626 17.044 8.218 16.896C8.85933 16.748 9.254 16.674 9.402 16.674C10.1913 16.526 13.398 16.2793 19.022 15.934ZM47.8138 27.774C48.7511 27.5767 50.1571 27.478 52.0318 27.478C53.4131 27.478 54.5971 27.552 55.5838 27.7C58.2478 28.292 59.7771 28.9087 60.1718 29.55C60.3691 29.8953 60.4678 30.2407 60.4678 30.586C60.4678 31.0793 60.1964 31.696 59.6538 32.436L56.9158 32.362H56.4718C55.0904 32.362 53.2158 32.4607 50.8478 32.658C48.4798 32.8553 47.1231 33.028 46.7778 33.176C46.3831 33.3733 46.0624 34.2613 45.8158 35.84L48.1098 35.766C48.9484 35.7167 50.7491 35.692 53.5118 35.692C55.6824 35.692 57.0144 35.7907 57.5078 35.988C58.7411 36.4813 59.3578 37.2213 59.3578 38.208C59.3578 38.3067 59.3084 38.504 59.2098 38.8C58.8644 39.54 57.8284 39.984 56.1018 40.132C52.5004 40.3293 49.4418 40.724 46.9258 41.316C46.7778 41.316 46.4324 41.3653 45.8898 41.464C45.3964 41.5627 45.0511 41.6367 44.8538 41.686C44.0644 41.7847 43.5958 41.908 43.4478 42.056C43.2011 42.2533 42.7571 43.1907 42.1158 44.868C41.5238 46.5453 41.2278 47.5567 41.2278 47.902C41.2278 48.0007 41.5238 48.05 42.1158 48.05C42.2638 48.05 42.5598 48.05 43.0038 48.05C43.4478 48.0007 43.7931 47.976 44.0398 47.976C47.3944 47.7293 49.7624 47.606 51.1438 47.606C51.9331 47.606 52.9691 47.6553 54.2518 47.754C58.4451 48.0993 60.9118 49.0367 61.6518 50.566C61.7504 50.714 61.7998 50.9607 61.7998 51.306C61.7998 51.7993 61.5284 52.2187 60.9858 52.564C60.4924 52.8107 59.7031 52.934 58.6178 52.934C58.4204 52.934 57.9518 52.934 57.2118 52.934C56.4718 52.8847 55.8058 52.86 55.2138 52.86C50.2804 52.86 45.9884 53.082 42.3378 53.526C41.3511 53.6247 40.6851 53.674 40.3398 53.674C38.9091 53.674 37.7498 53.23 36.8618 52.342C36.2204 51.7007 35.8998 50.8373 35.8998 49.752V49.234C36.0478 46.6193 36.7384 43.7827 37.9718 40.724C38.0211 40.5267 38.1444 40.206 38.3418 39.762C38.5391 39.2687 38.7611 38.726 39.0078 38.134C39.2544 37.4927 39.4518 36.9747 39.5998 36.58C40.2904 34.952 40.6358 33.916 40.6358 33.472C40.6358 33.2747 40.6111 33.102 40.5618 32.954C40.5124 32.806 40.4878 32.6087 40.4878 32.362C40.4878 30.586 42.1898 29.254 45.5938 28.366C46.9258 28.0207 47.6658 27.8233 47.8138 27.774ZM87.8449 25.406C88.2396 25.258 88.5849 25.184 88.8809 25.184C89.6209 25.184 90.2129 25.4307 90.6569 25.924C91.1009 26.368 91.3229 26.9353 91.3229 27.626C91.3229 27.9713 90.9529 28.5633 90.2129 29.402C89.5222 30.1913 87.2036 32.658 83.2569 36.802C79.6062 40.6007 77.0902 43.092 75.7089 44.276C74.8702 45.016 74.4509 45.4353 74.4509 45.534C74.4509 45.7313 74.7716 45.83 75.4129 45.83C75.5116 45.83 75.8816 45.8547 76.5229 45.904C77.1642 45.904 77.9536 45.904 78.8909 45.904C79.8776 45.904 80.7902 45.904 81.6289 45.904C86.7596 46.0027 90.2869 46.2987 92.2109 46.792C94.1349 47.2853 95.0969 48.1487 95.0969 49.382C95.0969 49.7273 94.9489 50.0727 94.6529 50.418C94.4062 50.714 94.1349 50.862 93.8389 50.862H88.8809C85.8222 50.862 81.1849 51.01 74.9689 51.306C72.7489 51.4047 71.2442 51.528 70.4549 51.676C68.9749 51.8733 68.0869 51.972 67.7909 51.972C66.3109 51.972 65.1269 51.1827 64.2389 49.604C64.0909 49.308 64.0169 48.9873 64.0169 48.642C64.0169 47.5567 64.7816 46.1507 66.3109 44.424C67.2482 43.3387 69.3202 41.2913 72.5269 38.282C75.7336 35.2233 77.6329 33.4967 78.2249 33.102C78.6196 32.806 79.1129 32.4113 79.7049 31.918C80.2969 31.3753 80.5929 31.0547 80.5929 30.956C80.5929 30.7587 79.8776 30.66 78.4469 30.66C76.9669 30.66 75.7336 30.7093 74.7469 30.808C72.9709 30.956 71.6142 31.03 70.6769 31.03C69.0982 31.03 67.9882 30.734 67.3469 30.142C66.9522 29.846 66.7549 29.4267 66.7549 28.884C66.7549 28.0453 67.1496 27.478 67.9389 27.182C70.3562 26.146 75.4129 25.628 83.1089 25.628H84.8849C86.5129 25.628 87.4996 25.554 87.8449 25.406ZM123.794 56.116C123.794 57.1027 123.498 57.892 122.906 58.484C122.314 59.0267 121.55 59.298 120.612 59.298C118.886 59.298 117.825 58.262 117.43 56.19C117.381 56.042 117.356 55.82 117.356 55.524C117.356 53.9453 118.072 51.4293 119.502 47.976C119.946 46.8907 120.588 45.5093 121.426 43.832C122.314 42.1547 122.808 41.2667 122.906 41.168C123.35 40.9213 123.572 40.4527 123.572 39.762C123.572 39.5647 123.227 39.0713 122.536 38.282C120.612 36.1607 118.17 32.732 115.21 27.996C112.645 24 111.362 20.9167 111.362 18.746C111.362 17.858 111.584 17.118 112.028 16.526C112.522 15.934 113.138 15.638 113.878 15.638C115.21 15.638 116.197 16.6 116.838 18.524C117.184 19.6587 118.614 22.446 121.13 26.886C121.426 27.4287 121.969 28.3413 122.758 29.624C123.597 30.9067 124.14 31.7453 124.386 32.14C125.373 33.8667 125.99 34.73 126.236 34.73H126.31C126.557 34.73 128.481 31.7453 132.082 25.776C133.168 24.148 134.204 22.2733 135.19 20.152C136.868 16.896 138.2 14.9967 139.186 14.454C139.63 14.306 140 14.232 140.296 14.232C140.839 14.232 141.308 14.4047 141.702 14.75C142.097 15.0953 142.294 15.6627 142.294 16.452C142.294 17.2907 142.171 18.08 141.924 18.82C141.234 21.2373 139.902 24.4193 137.928 28.366C136.054 32.1153 134.13 35.692 132.156 39.096C130.232 42.4507 128.456 45.7313 126.828 48.938C124.806 52.934 123.794 55.2033 123.794 55.746V56.116ZM160.295 27.996C159.111 27.7 158.445 27.552 158.297 27.552C157.508 27.552 156.447 27.996 155.115 28.884C153.29 30.1173 151.933 32.0167 151.045 34.582C150.7 35.5193 150.527 36.7773 150.527 38.356C150.527 39.8853 150.675 41.0447 150.971 41.834C151.908 44.2513 153.388 45.9287 155.411 46.866C156.25 47.2607 157.261 47.458 158.445 47.458C159.629 47.458 160.566 47.2853 161.257 46.94C163.822 45.5587 165.672 43.2153 166.807 39.91C167.35 38.1833 167.621 36.728 167.621 35.544C167.621 33.472 166.98 31.844 165.697 30.66C164.562 29.5747 162.762 28.6867 160.295 27.996ZM155.115 22.298C155.411 22.2487 155.978 22.224 156.817 22.224C159.185 22.224 161.035 22.372 162.367 22.668C170.31 24.444 174.281 28.81 174.281 35.766C174.281 38.3807 173.664 40.9953 172.431 43.61C171.247 46.2247 169.767 48.2967 167.991 49.826C165.327 52.194 162.416 53.452 159.259 53.6H158.445C155.929 53.6 153.561 52.8847 151.341 51.454C146.901 48.5433 144.681 44.35 144.681 38.874C144.681 35.2233 145.692 32.0167 147.715 29.254C148.702 27.922 149.195 26.9107 149.195 26.22C149.195 26.0227 149.565 25.554 150.305 24.814C151.045 24.074 151.588 23.6053 151.933 23.408C153.068 22.816 154.128 22.446 155.115 22.298ZM200.313 25.406C200.708 25.258 201.053 25.184 201.349 25.184C202.089 25.184 202.681 25.4307 203.125 25.924C203.569 26.368 203.791 26.9353 203.791 27.626C203.791 27.9713 203.421 28.5633 202.681 29.402C201.991 30.1913 199.672 32.658 195.725 36.802C192.075 40.6007 189.559 43.092 188.177 44.276C187.339 45.016 186.919 45.4353 186.919 45.534C186.919 45.7313 187.24 45.83 187.881 45.83C187.98 45.83 188.35 45.8547 188.991 45.904C189.633 45.904 190.422 45.904 191.359 45.904C192.346 45.904 193.259 45.904 194.097 45.904C199.228 46.0027 202.755 46.2987 204.679 46.792C206.603 47.2853 207.565 48.1487 207.565 49.382C207.565 49.7273 207.417 50.0727 207.121 50.418C206.875 50.714 206.603 50.862 206.307 50.862H201.349C198.291 50.862 193.653 51.01 187.437 51.306C185.217 51.4047 183.713 51.528 182.923 51.676C181.443 51.8733 180.555 51.972 180.259 51.972C178.779 51.972 177.595 51.1827 176.707 49.604C176.559 49.308 176.485 48.9873 176.485 48.642C176.485 47.5567 177.25 46.1507 178.779 44.424C179.717 43.3387 181.789 41.2913 184.995 38.282C188.202 35.2233 190.101 33.4967 190.693 33.102C191.088 32.806 191.581 32.4113 192.173 31.918C192.765 31.3753 193.061 31.0547 193.061 30.956C193.061 30.7587 192.346 30.66 190.915 30.66C189.435 30.66 188.202 30.7093 187.215 30.808C185.439 30.956 184.083 31.03 183.145 31.03C181.567 31.03 180.457 30.734 179.815 30.142C179.421 29.846 179.223 29.4267 179.223 28.884C179.223 28.0453 179.618 27.478 180.407 27.182C182.825 26.146 187.881 25.628 195.577 25.628H197.353C198.981 25.628 199.968 25.554 200.313 25.406Z" fill="white"/>
</svg>

<svg xmlns="http://www.w3.org/2000/svg" width="216" height="71" fill="none"><path fill="#fff" d="M19.022 15.934c.74-.05 1.53-.099 2.368-.148.839-.05 1.48-.074 1.924-.074.493-.05.962-.074 1.406-.074.148 0 1.455.05 3.922.148 3.65.148 6.191.345 7.622.592 1.48.247 2.516.666 3.108 1.258.444.444.666.962.666 1.554 0 1.43-.79 2.146-2.368 2.146h-1.258c-1.48 0-3.626.099-6.438.296-2.812.148-4.49.296-5.032.444-.296.05-.493.173-.592.37-.099.148-.222.567-.37 1.258-.099.543-.617 2.467-1.554 5.772-1.085 4.144-1.9 6.857-2.442 8.14-2.368 6.956-3.626 11.445-3.774 13.468-.148 3.059-1.135 4.588-2.96 4.588-.74 0-1.357-.345-1.85-1.036-.444-.74-.666-1.628-.666-2.664 0-2.27.518-5.698 1.554-10.286.247-1.53.493-2.467.74-2.812.148-.247.222-.493.222-.74 0-.69 1.085-4.49 3.256-11.396.69-2.319 1.036-3.626 1.036-3.922 0-.099-.197-.148-.592-.148-.444 0-1.307.05-2.59.148-1.233.05-1.949.074-2.146.074h-.148c-.099-.05-.79-.025-2.072.074a58.44 58.44 0 0 1-1.998.222c-.937.099-1.579.173-1.924.222-.888.099-1.48.148-1.776.148-1.776 0-2.861-.592-3.256-1.776-.099-.395-.148-.69-.148-.888 0-1.727 1.998-2.96 5.994-3.7.296-.05.74-.148 1.332-.296.641-.148 1.036-.222 1.184-.222.79-.148 3.996-.395 9.62-.74Zm28.792 11.84c.937-.197 2.343-.296 4.218-.296 1.381 0 2.565.074 3.552.222 2.664.592 4.193 1.209 4.588 1.85.197.345.296.69.296 1.036 0 .493-.272 1.11-.814 1.85l-2.738-.074h-.444c-1.382 0-3.256.099-5.624.296-2.368.197-3.725.37-4.07.518-.395.197-.716 1.085-.962 2.664l2.294-.074c.838-.05 2.64-.074 5.402-.074 2.17 0 3.502.099 3.996.296 1.233.493 1.85 1.233 1.85 2.22 0 .099-.05.296-.148.592-.346.74-1.382 1.184-3.108 1.332-3.602.197-6.66.592-9.176 1.184-.148 0-.494.05-1.036.148-.494.099-.839.173-1.036.222-.79.099-1.258.222-1.406.37-.247.197-.69 1.135-1.332 2.812-.592 1.677-.888 2.689-.888 3.034 0 .099.296.148.888.148h.888c.444-.05.79-.074 1.036-.074 3.354-.247 5.722-.37 7.104-.37.79 0 1.825.05 3.108.148 4.193.345 6.66 1.283 7.4 2.812.098.148.148.395.148.74 0 .493-.272.913-.814 1.258-.494.247-1.283.37-2.368.37h-1.406c-.74-.05-1.406-.074-1.998-.074-4.934 0-9.226.222-12.876.666-.987.099-1.653.148-1.998.148-1.43 0-2.59-.444-3.478-1.332-.642-.641-.962-1.505-.962-2.59v-.518c.148-2.615.838-5.451 2.072-8.51.05-.197.172-.518.37-.962.197-.493.42-1.036.666-1.628.246-.641.444-1.16.592-1.554.69-1.628 1.036-2.664 1.036-3.108 0-.197-.025-.37-.074-.518a1.923 1.923 0 0 1-.074-.592c0-1.776 1.702-3.108 5.106-3.996 1.332-.345 2.072-.543 2.22-.592Zm40.03-2.368c.396-.148.74-.222 1.037-.222.74 0 1.332.247 1.776.74.444.444.666 1.011.666 1.702 0 .345-.37.937-1.11 1.776-.69.79-3.01 3.256-6.956 7.4-3.65 3.799-6.167 6.29-7.548 7.474-.839.74-1.258 1.16-1.258 1.258 0 .197.32.296.962.296.099 0 .469.025 1.11.074h5.106c5.13.099 8.658.395 10.582.888 1.924.493 2.886 1.357 2.886 2.59 0 .345-.148.69-.444 1.036-.247.296-.518.444-.814.444H88.88c-3.059 0-7.696.148-13.912.444-2.22.099-3.725.222-4.514.37-1.48.197-2.368.296-2.664.296-1.48 0-2.664-.79-3.552-2.368a2.121 2.121 0 0 1-.222-.962c0-1.085.765-2.491 2.294-4.218.937-1.085 3.01-3.133 6.216-6.142 3.207-3.059 5.106-4.785 5.698-5.18.395-.296.888-.69 1.48-1.184.592-.543.888-.863.888-.962 0-.197-.715-.296-2.146-.296-1.48 0-2.713.05-3.7.148-1.776.148-3.133.222-4.07.222-1.579 0-2.689-.296-3.33-.888-.395-.296-.592-.715-.592-1.258 0-.839.395-1.406 1.184-1.702 2.417-1.036 7.474-1.554 15.17-1.554h1.776c1.628 0 2.615-.074 2.96-.222Zm35.95 30.71c0 .987-.296 1.776-.888 2.368-.592.543-1.356.814-2.294.814-1.726 0-2.787-1.036-3.182-3.108-.049-.148-.074-.37-.074-.666 0-1.579.716-4.095 2.146-7.548.444-1.085 1.086-2.467 1.924-4.144.888-1.677 1.382-2.565 1.48-2.664.444-.247.666-.715.666-1.406 0-.197-.345-.69-1.036-1.48-1.924-2.121-4.366-5.55-7.326-10.286-2.565-3.996-3.848-7.08-3.848-9.25 0-.888.222-1.628.666-2.22.494-.592 1.11-.888 1.85-.888 1.332 0 2.319.962 2.96 2.886.346 1.135 1.776 3.922 4.292 8.362.296.543.839 1.455 1.628 2.738a179.833 179.833 0 0 1 1.628 2.516c.987 1.727 1.604 2.59 1.85 2.59h.074c.247 0 2.171-2.985 5.772-8.954 1.086-1.628 2.122-3.503 3.108-5.624 1.678-3.256 3.01-5.155 3.996-5.698.444-.148.814-.222 1.11-.222.543 0 1.012.173 1.406.518.395.345.592.913.592 1.702 0 .839-.123 1.628-.37 2.368-.69 2.417-2.022 5.6-3.996 9.546a196.634 196.634 0 0 1-5.772 10.73 219.882 219.882 0 0 0-5.328 9.842c-2.022 3.996-3.034 6.265-3.034 6.808v.37Zm36.501-28.12c-1.184-.296-1.85-.444-1.998-.444-.789 0-1.85.444-3.182 1.332-1.825 1.233-3.182 3.133-4.07 5.698-.345.937-.518 2.195-.518 3.774 0 1.53.148 2.689.444 3.478.937 2.417 2.417 4.095 4.44 5.032.839.395 1.85.592 3.034.592 1.184 0 2.121-.173 2.812-.518 2.565-1.381 4.415-3.725 5.55-7.03.543-1.727.814-3.182.814-4.366 0-2.072-.641-3.7-1.924-4.884-1.135-1.085-2.935-1.973-5.402-2.664Zm-5.18-5.698c.296-.05.863-.074 1.702-.074 2.368 0 4.218.148 5.55.444 7.943 1.776 11.914 6.142 11.914 13.098 0 2.615-.617 5.23-1.85 7.844-1.184 2.615-2.664 4.687-4.44 6.216-2.664 2.368-5.575 3.626-8.732 3.774h-.814c-2.516 0-4.884-.715-7.104-2.146-4.44-2.91-6.66-7.104-6.66-12.58 0-3.65 1.011-6.857 3.034-9.62.987-1.332 1.48-2.343 1.48-3.034 0-.197.37-.666 1.11-1.406.74-.74 1.283-1.209 1.628-1.406 1.135-.592 2.195-.962 3.182-1.11Zm45.198 3.108c.395-.148.74-.222 1.036-.222.74 0 1.332.247 1.776.74.444.444.666 1.011.666 1.702 0 .345-.37.937-1.11 1.776-.69.79-3.009 3.256-6.956 7.4-3.65 3.799-6.166 6.29-7.548 7.474-.838.74-1.258 1.16-1.258 1.258 0 .197.321.296.962.296.099 0 .469.025 1.11.074h5.106c5.131.099 8.658.395 10.582.888 1.924.493 2.886 1.357 2.886 2.59 0 .345-.148.69-.444 1.036-.246.296-.518.444-.814.444h-4.958c-3.058 0-7.696.148-13.912.444-2.22.099-3.724.222-4.514.37-1.48.197-2.368.296-2.664.296-1.48 0-2.664-.79-3.552-2.368a2.121 2.121 0 0 1-.222-.962c0-1.085.765-2.491 2.294-4.218.938-1.085 3.01-3.133 6.216-6.142 3.207-3.059 5.106-4.785 5.698-5.18.395-.296.888-.69 1.48-1.184.592-.543.888-.863.888-.962 0-.197-.715-.296-2.146-.296-1.48 0-2.713.05-3.7.148-1.776.148-3.132.222-4.07.222-1.578 0-2.688-.296-3.33-.888-.394-.296-.592-.715-.592-1.258 0-.839.395-1.406 1.184-1.702 2.418-1.036 7.474-1.554 15.17-1.554h1.776c1.628 0 2.615-.074 2.96-.222Z"/></svg>
